X:1
T:Musing on the Roaring Ocean
M:4/4
L:1/8
K:F
 z A A3/2 G/2G-A c2| d2c-A G3/2 A/2 G2| A3/2 AG F/2 F3/2 G/2 Ac| c2 A3/2 G/2 F4|\
 c2 c3/2 d/2c-d f2| f/2- a3/2g-f _e3/2 d/2c-d| f3/2 d/2 d-c/2-F/2G-A c2|\
 d2 c3/2 A/2 G4|

